!!!!SEGMENT: pl-kk--kk-i-7--045-003_luython-carl--missa-sanctus.krn
!!!cenid: 16xx:846
!!!COM: Luython, Carl
!!!COM-rismID:
!!!CDT: ~1557-1620
!!!CNT:
!!!OPR: Missa
!!!OTL: Sanctus
!!!OMV: 003
!!!PDT:
!!!AGN: Sacred; Mass
!!!SMS-siglum: PL-Kk
!!!SMS-shelfmark: Kk.I.7
!!!SMS-shelfwork: 045-003 M
!!!SMS-variant:
!!!SMS-altvar:
!!!NIFC-rismSourceID: 300258122
!!!NIFC-islandoraID: pl-kk:1956
!!!URL-pdf-islandora: https://repozytorium.nifc.pl/islandora/object/pl-kk%3A1956/datastream/PDF/view
!!!URL-scan: https://polish.musicsources.pl/pl/lokalizacje/galeria/rekopisy/6140 @EN{Scan on Polish Music Herritage in Open Access Website} @PL{Skany w portalu Dziedzictwo Muzyki Polskiej w otwartym dostępie}
!!!ONB-nifc: UWAGA: C (skan 0039-0040, s.73-75), A (0123-0124, s.67-69), T(0199-0200, s.63-65), B(0289-0290, s.65-67). Części Mszy: 1. Kyrie, 2. Et in terra, 3. Sanctus, 4. Agnus Dei
!!!AIN: 1 alto 1 bass 1 soprn 1 tenor
!!!key:
**kern	**text	**kern	**text	**kern	**text	**kern	**text
*part4	*part4	*part3	*part3	*part2	*part2	*part1	*part1
*staff4	*staff4	*staff3	*staff3	*staff2	*staff2	*staff1	*staff1
*Ibass	*	*Itenor	*	*Ialto	*	*Isoprn	*
*I"BASSVS.	*	*I"TENOR.	*	*I"ALTVS.	*	*I"CANTVS.	*
*I'B	*	*I'T	*	*I'A	*	*I'S	*
*clefF4	*	*clefC4	*	*clefC3	*	*clefC1	*
*k[]	*	*k[]	*	*k[]	*	*k[]	*
*a:	*	*a:	*	*a:	*	*a:	*
*M2/1	*	*M2/1	*	*M2/1	*	*M2/1	*
*met(c|)	*	*met(c|)	*	*met(c|)	*	*met(c|)	*
=1	=1	=1	=1	=1	=1	=1	=1
!	!	!	!	!LO:TX:t=P:problem=kreska pseudotaktowa	!	!	!
!LO:TX:t=P:problem=przed kluczem inicjał S	!	!LO:TX:t=P:problem=przed kluczem inicjał S	!	!LO:TX:t=P:problem=przed kluczem inicjał S	!	!LO:TX:t=P:problem=przed kluczem inicjał S	!
00r	.	1.A\	San-	1r	.	2r	.
.	.	.	.	.	.	1cc\	San-
.	.	.	.	1.e\	San-	.	.
!	!	!	!	!	!	!LO:TX:t=P:problem=kreska pseudotaktowa	!
*	*	*	*	*	*	*2\right	*
!	!	!LO:TX:t=P:problem=kreska pseudotaktowa	!	!	!	!LO:TX:t=P:problem=kreska pseudotaktowa	!
.	.	2G/	.	.	.	2b\	.
=2-	=2-	=2-	=2-	=2-	=2-	=2-	=2-
.	.	2.F/	.	.	.	2.a\	.
*	*	*	*	*2\right	*	*	*
!	!	!	!	!LO:TX:t=P:problem=kreska pseudotaktowa	!	!	!
.	.	.	.	2d\	.	.	.
.	.	8E/L	.	.	.	8g/L	.
!	!	!LO:TX:t=P:problem=kreska pseudotaktowa	!	!	!	!	!
.	.	8D/J	.	.	.	8f/J	.
.	.	2E/	.	2.c/	.	2g\	.
!	!	!LO:TX:t=P:problem=kreska pseudotaktowa	!	!	!	!LO:TX:t=P:problem=kreska pseudotaktowa	!
.	.	2F#X/	.	.	.	2a\	.
.	.	.	.	8B/L	.	.	.
!	!	!	!	!LO:TX:t=P:problem=kreska pseudotaktowa	!	!	!
.	.	.	.	8A/J	.	.	.
=3-	=3-	=3-	=3-	=3-	=3-	=3-	=3-
!LO:TX:t=P:problem=kreska pseudotaktowa	!	!	!	!	!	!	!
0r	.	2.G/	.	4B/	.	2.d/	.
.	.	.	.	4c/	.	.	.
.	.	.	.	2.d\	.	.	.
.	.	4Fny/	.	.	.	8e/L	.
.	.	.	.	.	.	8f/J	.
!	!	!	!	!	!	!LO:TX:t=P:problem=kreska pseudotaktowa	!
.	.	1E/	.	.	.	1g\	.
.	.	.	.	8c#X/L	.	.	.
.	.	.	.	8B/J	.	.	.
!	!	!	!	!LO:TX:t=P:problem=kreska pseudotaktowa	!	!	!
.	.	.	.	2c#\	.	.	.
=4-	=4-	=4-	=4-	=4-	=4-	=4-	=4-
!	!	!LO:TX:t=P:problem=kreska pseudotaktowa	!	!	!	!	!
2r	.	1D/,<	-ctus	2d,<\	-ctus	2f#X,</	-ct(us)
*	*	*	*	*	*ij	*	*
1D\	San-	.	.	1f\	San-	2.a\	San-
.	.	1.A\	San-	.	.	.	.
.	.	.	.	.	.	4b\	.
!LO:TX:t=P:problem=kreska pseudotaktowa	!	!	!	!	!	!	!
2C/	.	.	.	2e\	.	4cc\	.
!	!	!	!	!	!	!LO:TX:t=P:problem=kreska pseudotaktowa	!
.	.	.	.	.	.	4a\	.
=5-	=5-	=5-	=5-	=5-	=5-	=5-	=5-
2.BB-X/	.	.	.	1d\	.	2.dd\	.
!	!	!LO:TX:t=P:problem=kreska pseudotaktowa	!	!	!	!	!
.	.	2G/	.	.	.	.	.
8AA/L	.	.	.	.	.	8cc\L	.
!	!	!	!	!	!	!LO:SIC:v:s=8b-	!
8GG/J	.	.	.	.	.	8b\J	.
2AA/	.	2.F/	.	2A,</	-ctus	4cc\	.
*	*	*	*	*	*Xij	*	*
!	!	!	!	!	!	!LO:SIC:v:s=4b-	!
.	.	.	.	.	.	4b\	.
!LO:TX:t=P:problem=kreska pseudotaktowa	!	!	!	!LO:TX:t=P:problem=kreska pseudotaktowa	!	!LO:TX:t=P:problem=kreska pseudotaktowa	!
2FF/	.	.	.	[<2cny/	San-	[<2a\	.
.	.	8E/L	.	.	.	.	.
.	.	8D/J	.	.	.	.	.
=6-	=6-	=6-	=6-	=6-	=6-	=6-	=6-
!LO:TX:t=P:problem=kreska pseudotaktowa	!	!	!	!LO:N:xstem:cue	!	!LO:N:xstem:cue	!
0C/	.	2E/	.	4c/]	.	4a\]	.
!	!	!	!	!LO:SIC:v:s=4B-	!	!	!
.	.	.	.	4B/	.	4g/	.
.	.	2F/	.	2A/	.	2.fny/	.
!	!	!LO:TX:t=P:problem=kreska pseudotaktowa	!	!	!	!	!
.	.	1G/	.	1G/	.	.	.
.	.	.	.	.	.	8e/L	.
.	.	.	.	.	.	8d/J	.
.	.	.	.	.	.	2e/	.
=7-	=7-	=7-	=7-	=7-	=7-	=7-	=7-
!	!	!	!	!LO:TX:t=P:problem=kreska pseudotaktowa	!	!LO:TX:t=P:problem=kreska pseudotaktowa	!
2FF,</	-ctus.	2A,</	-ctus	1F/	-ctus	1f/	-ctus
1F\	San-	1A\	San-	.	.	.	.
.	.	.	.	1.c\	San-	0r	.
*2\right	*	*	*	*	*	*	*
!LO:TX:t=P:problem=kreska pseudotaktowa	!	!	!	!	!	!	!
!	!	!LO:TX:t=P:problem=kreska pseudotaktowa	!	!	!	!	!
2E\	.	2G/	.	.	.	.	.
=8-	=8-	=8-	=8-	=8-	=8-	=8-	=8-
2.D/	.	2.F/	.	.	.	.	.
.	.	.	.	2B/	.	.	.
8C/L	.	8E/L	.	.	.	.	.
!	!	!LO:TX:t=P:problem=kreska pseudotaktowa	!	!	!	!	!
8BBny/J	.	8D/J	.	.	.	.	.
!	!	!	!	!	!	!LO:TX:t=P:problem=kreska pseudotaktowa	!
2C/	.	2E/	.	2.A/	.	1r	.
!LO:TX:t=P:problem=kreska pseudotaktowa	!	!	!	!	!	!	!
2D/	.	2F#X/	.	.	.	.	.
!	!	!	!	!LO:TX:t=P:problem=kreska pseudotaktowa	!	!	!
.	.	.	.	4B/	.	.	.
=9-	=9-	=9-	=9-	=9-	=9-	=9-	=9-
*	*	*	*	*lig	*	*	*
0E\	.	2G#X/	.	1c\	.	2r	.
!	!	!LO:TX:t=P:problem=kreska pseudotaktowa	!	!	!	!	!
.	.	[<2A/	.	.	.	2.e/	Do-
!	!	!LO:N:xstem:cue	!	!	!	!	!
.	.	4A/]	.	1B/	.	.	.
.	.	8G#X/L	.	.	.	4e/	-mi-
.	.	8F#X/J	.	.	.	.	.
.	.	2G#/	.	.	.	2bn\	-n(us)
!	!	!	!	!	!	!LO:TX:t=P:problem=kreska pseudotaktowa	!
*	*	*	*	*Xlig	*	*	*
=10-	=10-	=10-	=10-	=10-	=10-	=10-	=10-
!LO:TX:t=P:problem=kreska pseudotaktowa	!	!LO:TX:t=P:problem=kreska pseudotaktowa	!	!	!	!	!
1AA/	-ctus	1A\	-ctus	2A,</	-ctus	2.cc\	De-
.	.	.	.	2.e\	Do-	.	.
.	.	.	.	.	.	8b\L	.
.	.	.	.	.	.	8a\J	.
!	!	!LO:TX:t=P:problem=kreska pseudotaktowa	!	!	!	!	!
0r	.	1r	.	.	.	2g#X\	.
.	.	.	.	4e\	-mi-	.	.
!	!	!	!	!LO:TX:t=P:problem=kreska pseudotaktowa	!	!	!
.	.	.	.	2A/	-n(us)	2cc\	-us
=11-	=11-	=11-	=11-	=11-	=11-	=11-	=11-
.	.	2r	.	2.G#X/	DE-	2.b\	Sab-
*	*	*2\right	*	*	*	*	*
.	.	2.e\	Do-	.	.	.	.
!	!	!	!	!	!	!LO:TX:t=P:problem=kreska pseudotaktowa	!
.	.	.	.	8A/L	.	4b\	-ba-
.	.	.	.	8B/J	.	.	.
!	!	!	!	!LO:TX:t=P:problem=kreska pseudotaktowa	!	!	!
2.AA/	Do-	.	.	1c\	.	2a\	-oth
.	.	4e\	-mi-	.	.	.	.
!	!	!LO:TX:t=P:problem=kreska pseudotaktowa	!	!	!	!	!
.	.	2A/	-n(us)	.	.	4r	.
*	*	*	*	*	*	*custos:e	*
!	!	!	!	!	!	!LO:TX:t=P:problem=kreska pseudotaktowa	!
4AA/	-mi-	.	.	.	.	[4e/	Do-
=12-	=12-	=12-	=12-	=12-	=12-	=12-	=12-
*	*	*	*	*custos:e	*	*	*
!LO:TX:t=P:problem=kreska pseudotaktowa	!	!	!	!	!	!LO:TX:t=P:problem=brak zakończenia ligatury	!
1E\	-n(us)	2.G#X/	DE-	2B,</	-US	4e/]	.
.	.	.	.	.	.	4e/	-mi-
!	!	!	!	!	!	!LO:TX:t=P:problem=kreska pseudotaktowa	!
.	.	.	.	1e\	Sab-	2b\	-n(us)
.	.	8A\L	.	.	.	.	.
.	.	8B\J	.	.	.	.	.
!	!	!LO:TX:t=P:problem=kreska pseudotaktowa	!	!	!	!	!
2.C/	DE-	1c\	.	.	.	4a\	De-
.	.	.	.	.	.	4b\	.
.	.	.	.	2e\	-ba-	4cc\	.
8BB/L	.	.	.	.	.	4dd\	.
8AA/J	.	.	.	.	.	.	.
=13-	=13-	=13-	=13-	=13-	=13-	=13-	=13-
!	!	!	!	!LO:TX:t=P:problem=kreska pseudotaktowa	!	!	!
2GG#X/	.	2B\	-US	1e\	-oth.	2ee\	.
!LO:TX:t=P:problem=kreska pseudotaktowa	!	!	!	!	!	!LO:TX:t=P:problem=kreska pseudotaktowa	!
2AA/	-US	1A\	Sab-	.	.	2cc\	-us
!	!	!	!	!LO:TX:t=P:problem=kreska pseudotaktowa	!	!	!
2.E\	Sab-	.	.	1r	.	2.b\	Sab-
!	!	!LO:TX:t=P:problem=kreska pseudotaktowa	!	!	!	!	!
.	.	2G#X/	-ba-	.	.	.	.
4E\	-ba-	.	.	.	.	4b\	-ba-
=14-	=14-	=14-	=14-	=14-	=14-	=14-	=14-
!LO:TX:t=P:problem=kreska pseudotaktowa	!	!LO:TX:t=P:problem=kreska pseudotaktowa	!	!	!	!LO:TX:t=P:problem=kreska pseudotaktowa	!
1AA/	-oth	1A\	-oth.	1e\	Ple-	1a\,<	-oth.
0r	.	0r	.	2c#X\	-ni	1a\	Ple-
!	!	!	!	!LO:TX:t=P:problem=kreska pseudotaktowa	!	!	!
.	.	.	.	2f\	sunt	.	.
=15-	=15-	=15-	=15-	=15-	=15-	=15-	=15-
!LO:TX:t=P:problem=kreska pseudotaktowa	!	!	!	!	!	!	!
.	.	.	.	4.e\	cae-	2g#X\	-ni
.	.	.	.	8d\	.	.	.
!	!	!	!	!	!	!LO:TX:t=P:problem=kreska pseudotaktowa	!
.	.	.	.	4e\	.	2cc\	sunt
!	!	!	!	!LO:TX:t=P:problem=kreska pseudotaktowa	!	!	!
.	.	.	.	4f\	.	.	.
!	!	!LO:TX:t=P:problem=kreska pseudotaktowa	!	!	!	!	!
1E\	Ple-	1r	.	1g\	.	4b\	cae-
.	.	.	.	.	.	4a\	.
.	.	.	.	.	.	4b\	.
!	!	!	!	!	!	!LO:TX:t=P:problem=kreska pseudotaktowa	!
.	.	.	.	.	.	4cc\	.
=16-	=16-	=16-	=16-	=16-	=16-	=16-	=16-
2D\	-ni	1A\	Ple-	2f,<\	-li	1dd\	.
!LO:TX:t=P:problem=kreska pseudotaktowa	!	!	!	!LO:TX:t=P:problem=kreska pseudotaktowa	!	!	!
2F\	sunt	.	.	2d\	et	.	.
(4.E\	cae-	2G#X/	-ni	1e\	ter-	2.b\	-li
8D\	.	.	.	.	.	.	.
!	!	!LO:TX:t=P:problem=kreska pseudotaktowa	!	!	!	!	!
4E\)	.	2c\	sunt	.	.	.	.
!LO:TX:t=P:problem=kreska pseudotaktowa	!	!	!	!	!	!	!
4F\	.	.	.	.	.	4a\	et
=17-	=17-	=17-	=17-	=17-	=17-	=17-	=17-
!	!	!	!	!LO:TX:t=P:problem=kreska pseudotaktowa	!	!	!
1G\	.	(4.B\	cae-	1d\	-ra	1b\	ter-
.	.	8A\	.	.	.	.	.
.	.	4B\)	.	.	.	.	.
!	!	!LO:TX:t=P:problem=kreska pseudotaktowa	!	!	!	!	!
.	.	4c\	.	.	.	.	.
!	!	!	!	!	!	!LO:TX:t=P:problem=kreska pseudotaktowa	!
2F,<\	-li	1d\	.	1A/	glo-	1a\	-ra
!LO:TX:t=P:problem=kreska pseudotaktowa	!	!	!	!	!	!	!
2D\	et	.	.	.	.	.	.
=18-	=18-	=18-	=18-	=18-	=18-	=18-	=18-
2E\	ter-	2Bn,<\	-li	2G#X/	.	2r	.
!LO:TX:t=P:problem=kreska pseudotaktowa	!	!LO:TX:t=P:problem=kreska pseudotaktowa	!	!LO:TX:t=P:problem=kreska pseudotaktowa	!	!	!
2AA/	-ra	2e\	et	2cny/	.	1a\	Ple-
!LO:TX:t=P:problem=kreska pseudotaktowa	!	!	!	!	!	!	!
0r	.	2.d\	ter-	4.B/	.	.	.
.	.	.	.	8A/	.	.	.
.	.	.	.	4B/	.	1gny/	-ni
!	!	!LO:TX:t=P:problem=kreska pseudotaktowa	!	!LO:TX:t=P:problem=kreska pseudotaktowa	!	!	!
.	.	4c\	.	4c/	-ri-	.	.
=19-	=19-	=19-	=19-	=19-	=19-	=19-	=19-
.	.	4B\	.	1d\,	-a	.	.
.	.	4c\	.	.	.	.	.
!	!	!LO:TX:t=P:problem=kreska pseudotaktowa	!	!	!	!LO:TX:t=P:problem=kreska pseudotaktowa	!
.	.	2d\	.	.	.	2f/	sunt
1A\	Ple-	2A\	-ra	2.c/	tu-	4e/	cae-
.	.	.	.	.	.	4d/	.
.	.	1e\	Ple-	.	.	4e/	.
!	!	!	!	!	!	!LO:TX:t=P:problem=kreska pseudotaktowa	!
.	.	.	.	4A/	.	4f/	.
=20-	=20-	=20-	=20-	=20-	=20-	=20-	=20-
2G\	-ni	.	.	2B/	.	4g/	.
.	.	.	.	.	.	4e/	.
!LO:TX:t=P:problem=kreska pseudotaktowa	!	!	!	!LO:TX:t=P:problem=kreska pseudotaktowa	!	!LO:TX:t=P:problem=kreska pseudotaktowa	!
2F\	sunt	1d\	-ni	2A/	-a.	2a\	.
(4.E\	cae-	.	.	1e\	Ple-	1.g\	-li
8D\	.	.	.	.	.	.	.
!	!	!LO:TX:t=P:problem=kreska pseudotaktowa	!	!	!	!	!
4E\)	.	2c\	sunt	.	.	.	.
!LO:TX:t=P:problem=kreska pseudotaktowa	!	!	!	!	!	!	!
4F\	.	.	.	.	.	.	.
=21-	=21-	=21-	=21-	=21-	=21-	=21-	=21-
1G\	.	(4B\	cae-	4d\	-ni	.	.
.	.	4A\	.	4c\	sunt	.	.
!	!	!	!	!LO:TX:t=P:problem=kreska pseudotaktowa	!	!	!
.	.	4B\)	.	2B/	cae-	2d/	et
.	.	4c\	.	.	.	.	.
!	!	!	!	!	!	!LO:TX:t=P:problem=kreska pseudotaktowa	!
2F,<\	-li	2d\	.	4A,</	-li	1f/	ter-
.	.	.	.	4A/	et	.	.
!LO:TX:t=P:problem=kreska pseudotaktowa	!	!	!	!	!	!	!
2D\	et	4d\	-li	1A/	ter-	.	.
!	!	!LO:TX:t=P:problem=kreska pseudotaktowa	!	!	!	!	!
.	.	4A\	et	.	.	.	.
=22-	=22-	=22-	=22-	=22-	=22-	=22-	=22-
1E\	ter-	2c\	ter-	.	.	1.e/	-ra
.	.	1Bn\	-ra	1G#X/	-ra	.	.
2E,<\	-ra	.	.	.	.	.	.
!	!	!LO:TX:t=P:problem=kreska pseudotaktowa	!	!	!	!LO:TX:t=P:problem=kreska pseudotaktowa	!
2.AA/	glo-	[<2A\	glo-	1e\	glo-	[<2cc\	glo-
=23-	=23-	=23-	=23-	=23-	=23-	=23-	=23-
!	!	!LO:N:xstem:cue	!	!	!	!LO:N:xstem:cue	!
.	.	4A\]	.	.	.	4cc\]	.
4AA/	-ri-	4A/	-ri-	.	.	4cc\	-ri-
!LO:TX:t=P:problem=kreska pseudotaktowa	!	!	!	!	!	!LO:TX:t=P:problem=kreska pseudotaktowa	!
2E\	-a	2G#X/	-â	2e\	-ri-	2b\	-a
!	!	!	!	!LO:TX:t=P:problem=kreska pseudotaktowa	!	!	!
2.F\	Tu-	0A\	Tu-	1d\	-a	2.a\	tu-
*	*	*	*	*	*	*custos:f	*
!	!	!	!	!	!	!LO:TX:t=P:problem=kreska pseudotaktowa	!
4E\	.	.	.	.	.	4g\	.
=24-	=24-	=24-	=24-	=24-	=24-	=24-	=24-
4D/	.	.	.	1d\	tu-	4f/	.
4C/	.	.	.	.	.	4e/	.
2D/	.	.	.	.	.	2f/	.
!LO:TX:b:i:t=Osanna \nut Sant(us)	!	!LO:TX:b:t=Osanna \nut Sant(us)	!	!LO:TX:b:t=Osanna \nut Sant(us)	!	!LO:TX:b:i:t=Osanna \nut Sant(us)	!
!LO:N:vis=0	!	!LO:N:vis=0	!	!LO:N:vis=0	!	!LO:N:vis=0	!
1AA/	-a	1A\;	-â.	1c#X\;	-â.	1e/;	-â.
=25||	=25||	=25||	=25||	=25||	=25||	=25||	=25||
*M2/1	*	*M2/1	*	*M2/1	*	*M2/1	*
*met(c|)	*	*met(c|)	*	*met(c|)	*	*met(c|)	*
!LO:TX:t=P:met(c|):problem	!	!	!	!LO:TX:t=P:problem=kreska pseudotaktowa	!	!	!
!LO:TX:t=P:problem=przed kluczem inicjał B	!	!LO:TX:t=P:met(c|):problem	!	!LO:TX:t=P:met(c|):problem	!	!LO:TX:t=P:met(c|):problem	!
00r	.	00r	.	1r	.	1.a\	Be-
.	.	.	.	1.d\	Be-	.	.
!	!	!	!	!	!	!LO:TX:t=P:problem=kreska pseudotaktowa	!
.	.	.	.	.	.	2a\	-ne-
=26-	=26-	=26-	=26-	=26-	=26-	=26-	=26-
.	.	.	.	.	.	1f/	-di-
.	.	.	.	2d\	-ne-	.	.
!	!	!	!	!LO:TX:t=P:problem=kreska pseudotaktowa	!	!	!
.	.	.	.	1c\	-di-	2e/	-ctus
.	.	.	.	.	.	4a\	qui
.	.	.	.	.	.	2cc\	ve-
=27-	=27-	=27-	=27-	=27-	=27-	=27-	=27-
!	!	!LO:TX:t=P:problem=kreska pseudotaktowa	!	!	!	!	!
0r	.	0r	.	2A/	-ct(us)	.	.
.	.	.	.	.	.	4b\	.
!	!	!	!	!	!	!LO:TX:t=P:problem=kreska pseudotaktowa	!
.	.	.	.	4d\	qui	[<2a\	.
.	.	.	.	2f\	Ve-	.	.
!	!	!	!	!	!	!LO:N:xstem:cue	!
.	.	.	.	.	.	4a\]	.
.	.	.	.	4e\	.	4g/	.
!	!	!	!	!LO:TX:t=P:problem=kreska pseudotaktowa	!	!	!
.	.	.	.	[<2d\	.	4f/	.
.	.	.	.	.	.	8e/L	.
.	.	.	.	.	.	8d/J	.
=28-	=28-	=28-	=28-	=28-	=28-	=28-	=28-
!LO:TX:t=P:problem=kreska pseudotaktowa	!	!	!	!LO:N:xstem:cue	!	!	!
1r	.	1.A\	Be-	4d\]	.	1e/	.
.	.	.	.	8c#X/L	.	.	.
.	.	.	.	8B/J	.	.	.
.	.	.	.	2c#/	.	.	.
!	!	!	!	!LO:TX:t=P:problem=kreska pseudotaktowa	!	!LO:TX:t=P:problem=kreska pseudotaktowa	!
1.D\	Be-	.	.	1d\	-nit	1d/	-nit
.	.	2A/	-ne-	.	.	.	.
=29-	=29-	=29-	=29-	=29-	=29-	=29-	=29-
!	!	!LO:TX:t=P:problem=kreska pseudotaktowa	!	!	!	!LO:TX:t=P:problem=kreska pseudotaktowa	!
.	.	1F/	-di-	0r	.	00r	.
!LO:TX:t=P:problem=kreska pseudotaktowa	!	!	!	!	!	!	!
2D/	-ne-	.	.	.	.	.	.
1C/	-di-	2E/	-ctus	.	.	.	.
.	.	4A\	qui	.	.	.	.
!	!	!LO:TX:t=P:problem=kreska pseudotaktowa	!	!	!	!	!
.	.	[<4c\	.	.	.	.	.
=30-	=30-	=30-	=30-	=30-	=30-	=30-	=30-
!	!	!	!	!LO:TX:t=P:problem=kreska pseudotaktowa	!	!	!
2AA,</	-ctus	4c\]	.	1r	.	.	.
.	.	4B\	.	.	.	.	.
4D\	qui	2.A\	Ve-	.	.	.	.
!LO:TX:t=P:problem=kreska pseudotaktowa	!	!	!	!	!	!	!
[<4F\	.	.	.	.	.	.	.
4F\]	.	.	.	1.A/	Be	.	.
4E\	.	4G/	.	.	.	.	.
2.D\	Ve-	4F/	.	.	.	.	.
.	.	8E/L	.	.	.	.	.
!	!	!LO:TX:t=P:problem=kreska pseudotaktowa	!	!	!	!	!
.	.	8D/J	.	.	.	.	.
=31-	=31-	=31-	=31-	=31-	=31-	=31-	=31-
.	.	1E/	.	.	.	1.a\	Be-
8C#X/L	.	.	.	.	.	.	.
8BB/J	.	.	.	.	.	.	.
!	!	!	!	!LO:TX:t=P:problem=kreska pseudotaktowa	!	!	!
2C#/	.	.	.	2e\	ne-	.	.
!LO:TX:t=P:problem=kreska pseudotaktowa	!	!LO:TX:t=P:problem=kreska pseudotaktowa	!	!	!	!	!
1D\	-nit	1D/	-nit	1f\	-di-	.	.
!	!	!	!	!	!	!LO:TX:t=P:problem=kreska pseudotaktowa	!
.	.	.	.	.	.	2a\	-ne-
=32-	=32-	=32-	=32-	=32-	=32-	=32-	=32-
!LO:TX:t=P:problem=kreska pseudotaktowa	!	!LO:TX:t=P:problem=kreska pseudotaktowa	!	!	!	!	!
0r	.	1r	.	2e\	-ctus	1cc\	-di-
.	.	.	.	4A/	.	.	.
!	!	!	!	!LO:TX:t=P:problem=kreska pseudotaktowa	!	!	!
.	.	.	.	[<4e\	qui	.	.
.	.	1.e\	Be-	4e\]	.	2b\	-ct(us)
.	.	.	.	4d\	.	.	.
!	!	!	!	!	!	!LO:TX:t=P:problem=kreska pseudotaktowa	!
.	.	.	.	4cny/	.	2ee\	qui
.	.	.	.	4B/	.	.	.
=33-	=33-	=33-	=33-	=33-	=33-	=33-	=33-
!	!	!	!	!LO:TX:t=P:problem=kreska pseudotaktowa	!	!	!
1.A\	Be-	.	.	1c\	Ve-	4.cc\	ve-
.	.	.	.	.	.	8b\	.
!	!	!LO:TX:t=P:problem=kreska pseudotaktowa	!	!	!	!	!
.	.	2e\	-ne-	.	.	4a\	.
.	.	.	.	.	.	4g\	.
.	.	1.c\	-di-	2A,</	-nit	4f/	.
.	.	.	.	.	.	4e/	.
!	!	!	!	!	!	!LO:TX:t=P:problem=kreska pseudotaktowa	!
2A\	-ne-	.	.	2.A/	Be-	[2e/	.
=34-	=34-	=34-	=34-	=34-	=34-	=34-	=34-
!LO:TX:t=P:problem=kreska pseudotaktowa	!	!	!	!	!	!LO:N:xstem:cue	!
1F\	-di-	.	.	.	.	4e/]	.
.	.	.	.	4A/	-ne-	8d/L	.
.	.	.	.	.	.	8c/J	.
!	!	!LO:TX:t=P:problem=kreska pseudotaktowa	!	!LO:TX:t=P:problem=kreska pseudotaktowa	!	!	!
.	.	2A\	.	2A/	-di-	2d/	.
!	!	!	!	!	!	!LO:TX:t=P:problem=kreska pseudotaktowa	!
2E,<\	-ctus	2B\	-ct(us)	2G#X/	-ctus	1e/	-nit
4AA/	qui	1e\	qui	4A/	qui	.	.
2A\	ve-	.	.	2c/	Ve-	.	.
=35-	=35-	=35-	=35-	=35-	=35-	=35-	=35-
!	!	!	!	!	!	!LO:TX:t=P:problem=kreska pseudotaktowa	!
.	.	.	.	.	.	1r	.
4G\	.	.	.	4B/	.	.	.
!	!	!LO:TX:t=P:problem=kreska pseudotaktowa	!	!LO:TX:t=P:problem=kreska pseudotaktowa	!	!	!
4F\	.	2d\	Ve-	[2A/	.	.	.
8E\L	.	.	.	.	.	.	.
8D\J	.	.	.	.	.	.	.
1E\	.	4c\	.	4A/]	.	2r	.
.	.	8B\L	.	8G#X/L	.	.	.
!	!	!	!	!LO:SIC:v:s=8F#	!	!	!
.	.	8A\J	.	8F/J	.	.	.
!	!	!	!	!LO:TX:t=P:problem=kreska pseudotaktowa	!	!LO:TX:t=P:problem=kreska pseudotaktowa	!
.	.	2B\	.	2G#/	.	2b\	in
=36-	=36-	=36-	=36-	=36-	=36-	=36-	=36-
!LO:TX:t=P:problem=kreska pseudotaktowa	!	!LO:TX:t=P:problem=kreska pseudotaktowa	!	!	!	!	!
1AA/	-nit	1A\	-nit	2A,</	-nit	2.cc\	No-
!	!	!	!	!LO:TX:t=P:problem=kreska pseudotaktowa	!	!	!
.	.	.	.	2A/	in	.	.
!	!	!	!	!	!	!LO:TX:t=P:problem=kreska pseudotaktowa	!
.	.	.	.	.	.	4a\	-mi-
2r	.	1r	.	2.c/	No-	4.g/	-ne
.	.	.	.	.	.	8f/	.
*custos:F	*	*	*	*	*	*	*
!LO:TX:t=P:problem=kreska pseudotaktowa	!	!	!	!	!	!	!
2E\	in	.	.	.	.	4.e/	.
.	.	.	.	4B/	.	.	.
.	.	.	.	.	.	8d/	.
=37-	=37-	=37-	=37-	=37-	=37-	=37-	=37-
2.F\	No-	2r	.	4.A/	-mi-	2c/	Do-
.	.	.	.	8B/	.	.	.
!	!	!LO:TX:t=P:problem=kreska pseudotaktowa	!	!	!	!	!
.	.	2A\	in	4c\	.	4.f/	.
!LO:TX:t=P:problem=kreska pseudotaktowa	!	!	!	!LO:TX:t=P:problem=kreska pseudotaktowa	!	!	!
4D/	-mi-	.	.	4d\	.	.	.
!	!	!	!	!	!	!LO:TX:t=P:problem=kreska pseudotaktowa	!
.	.	.	.	.	.	8g/	.
!	!	!	!	!LO:TX:t=P:problem=kreska pseudotaktowa	!	!	!
4.Cny/	-ne	2.c\	No-	1e\	-ne	4.a\	.
8BB/	.	.	.	.	.	8b\	.
4AA/	.	.	.	.	.	1cc\	.
!LO:TX:t=P:problem=kreska pseudotaktowa	!	!LO:TX:t=P:problem=kreska pseudotaktowa	!	!	!	!	!
4GG/	.	4B\	-mi-	.	.	.	.
=38-	=38-	=38-	=38-	=38-	=38-	=38-	=38-
1FF/	.	4.A\	-ne	2.f\	Do-	.	.
.	.	8B\	.	.	.	.	.
.	.	4.c\	.	.	.	2a\	-mi-
.	.	.	.	4f\	-mi-	.	.
.	.	8d\	.	.	.	.	.
!	!	!	!	!LO:TX:t=P:problem=kreska pseudotaktowa	!	!LO:TX:t=P:problem=kreska pseudotaktowa	!
2.C/	Do-	2e\	Do-	1e\	-ni	1g\	-ni
.	.	1c\	.	.	.	.	.
!LO:TX:t=P:problem=kreska pseudotaktowa	!	!	!	!	!	!	!
4D\	.	.	.	.	.	.	.
=39-	=39-	=39-	=39-	=39-	=39-	=39-	=39-
!	!	!	!	!LO:TX:t=P:problem=kreska pseudotaktowa	!	!	!
2E\	.	.	.	1r	.	2r	.
2F\	-mi-	2A/	-mi-	.	.	2a\	in
!LO:TX:t=P:problem=kreska pseudotaktowa	!	!LO:TX:t=P:problem=kreska pseudotaktowa	!	!	!	!	!
1C/	-ni.	1G/	-ni	1e\	in	2.cc\	No-
!	!	!	!	!	!	!LO:TX:t=P:problem=kreska pseudotaktowa	!
.	.	.	.	.	.	4b\	.
=40-	=40-	=40-	=40-	=40-	=40-	=40-	=40-
!	!	!LO:TX:t=P:problem=kreska pseudotaktowa	!	!	!	!	!
00r	.	1r	.	2.f\	No-	4.a\	.
.	.	.	.	.	.	8b\	.
.	.	.	.	.	.	4cc\	.
!	!	!	!	!LO:TX:t=P:problem=kreska pseudotaktowa	!	!	!
.	.	.	.	4d\	-mi-	4dd\	.
.	.	1A\	in	4.c/	-ne	1ee\	.
.	.	.	.	8B/	.	.	.
.	.	.	.	4.A/	.	.	.
.	.	.	.	8Gny/	.	.	.
=41-	=41-	=41-	=41-	=41-	=41-	=41-	=41-
.	.	2.c\	No-	1.F/	Do-	2.a\	.
!	!	!LO:TX:t=P:problem=kreska pseudotaktowa	!	!	!	!LO:TX:t=P:problem=kreska pseudotaktowa	!
.	.	4B\	-mi-	.	.	4b\	-mi-
.	.	2A\	-ne	.	.	4cc\	-ne
.	.	.	.	.	.	4dd\	.
.	.	4A\	Do-	4c\	.	2.ee\	Do-
!	!	!LO:TX:t=P:problem=kreska pseudotaktowa	!	!LO:TX:t=P:problem=kreska pseudotaktowa	!	!	!
.	.	4B\	.	4d\	.	.	.
=42-	=42-	=42-	=42-	=42-	=42-	=42-	=42-
!LO:TX:t=P:problem=kreska pseudotaktowa	!	!	!	!	!	!	!
0r	.	4c\	.	4e\	.	.	.
.	.	4d\	.	4f#X\	.	4dd\	.
.	.	4e\	.	1g\	.	4.cc\	.
!	!	!LO:TX:t=P:problem=kreska pseudotaktowa	!	!	!	!	!
.	.	4c\	.	.	.	.	.
!	!	!	!	!	!	!LO:TX:t=P:problem=kreska pseudotaktowa	!
.	.	.	.	.	.	8b\	.
.	.	2.d\	.	.	.	4b\	.
.	.	.	.	.	.	8a\L	.
.	.	.	.	.	.	8g\J	.
.	.	.	.	2f#X\	-mi-	4.a\	.
.	.	4d\	-mi-	.	.	.	.
.	.	.	.	.	.	8a\	-mi-
=43-	=43-	=43-	=43-	=43-	=43-	=43-	=43-
2r;	.	2G;<,</	-ni.	2g;,<\	-ni.	2b;,<\	-ni.
!LO:TX:t=P:problem=kreska pseudotaktowa	!	!	!	!LO:TX:t=P:problem=kreska pseudotaktowa	!	!LO:TX:t=P:problem=kreska pseudotaktowa	!
2G\	O-	2B\	O-	2d\	O-	2dd\	O-
1.C/	-san-	1.e\	-san-	0g\	-ſan-	1.cc\	-san-
=44-	=44-	=44-	=44-	=44-	=44-	=44-	=44-
!LO:TX:t=P:problem=kreska pseudotaktowa	!	!LO:TX:t=P:problem=kreska pseudotaktowa	!	!	!	!	!
2G\	-na	2d\	.	.	.	2b\	-na
!	!	!	!	!LO:TX:t=P:problem=kreska pseudotaktowa	!	!	!
2A\	in	2c\	-na	1e\,	-na	2a\	in
2E\	ex-	4B\	in	.	.	2g#X\	ex-
.	.	2e\	ex-	.	.	.	.
=45-	=45-	=45-	=45-	=45-	=45-	=45-	=45-
2.F\	-cel-	.	.	2A/	in	0a\	-cel-
.	.	4d\	.	.	.	.	.
!	!	!LO:TX:t=P:problem=kreska pseudotaktowa	!	!	!	!	!
.	.	[<2d\	-cel-	2f\	ex-	.	.
!LO:TX:t=P:problem=kreska pseudotaktowa	!	!	!	!	!	!	!
4G\	.	.	.	.	.	.	.
!	!	!LO:N:xstem:cue	!	!	!	!	!
1A\	.	4d\]	.	1e\	-cel-	.	.
.	.	8c#X\L	.	.	.	.	.
.	.	8B\J	.	.	.	.	.
.	.	2c#\	.	.	.	.	.
=46-	=46-	=46-	=46-	=46-	=46-	=46-	=46-
0D\;	-sis.	0d\;	-sis.	0d\;	-ſis.	0f#X/;	-ſis.
==	==	==	==	==	==	==	==
*-	*-	*-	*-	*-	*-	*-	*-
!!!RDF**kern: > = above
!!!RDF**kern: < = below
!!!system-decoration: [(s1,s2,s3,s4)]
!!!EED: Andrzej Borzym
!!!EEV: 2021-03-14
!!!ENC: Andrzej Borzym
!!!END: 2021-02-25
